assets/task/mono.svg

<svg viewBox="0 0 24 24" xmlns="http://www.w3.org/2000/svg"><path d="m1.857 18.013 9.879 5.987v-11.544l-9.879-5.988zm20.286 0v-11.545l-9.879 5.988v11.544zm-.246-12.014-9.897-5.999-9.897 5.999 9.897 5.999z"/></svg>

<svg xmlns="http://www.w3.org/2000/svg" viewBox="0 0 24 24"><path d="M1.857 18.013 11.736 24V12.456L1.857 6.468zm20.286 0V6.468l-9.879 5.988V24zm-.246-12.014L12 0 2.103 5.999 12 11.998z"/></svg>
